Adwaita++/actions/22/edit-clear.svg

<svg fill="none" height="22" viewBox="0 0 22 22" width="22" xmlns="http://www.w3.org/2000/svg">
  <path d="m9 5-6 6 6 6h9.0353c.5303-.0221.9647-.4918.9647-1v-10c0-.53079-.3456-1-1.0089-1zm1 3h1c.0104-.00012.0208-.00046.0313 0 .2549.0112.5099.12858.6875.3125l1.2812 1.28119 1.3125-1.28119c.2656-.2305.4467-.3055.6875-.3125h1v1c0 .28647-.0343.55065-.25.75l-1.2812 1.2812 1.25 1.25c.1882.1882.2812.4534.2812.7187v1h-1c-.2653 0-.5305-.0931-.7187-.2812l-1.2812-1.2812-1.2812 1.2812c-.1882.1882-.4535.2812-.7187.2812h-1v-1c0-.2653.0931-.5305.2812-.7187l1.2812-1.25-1.2812-1.2812c-.2107-.19463-.30316-.46925-.2812-.75v-1z" fill="#444"/>
</svg>

<svg xmlns="http://www.w3.org/2000/svg" fill="none" width="22" height="22" viewBox="0 0 22 22">
 <path fill="#444" d="M9 5L3 11L9 17H18.0353C18.5656 16.9779 19 16.5082 19 16V6C19 5.46921 18.6544 5 17.9911 5H9V5ZM10 8H11C11.0104 7.99988 11.0208 7.99954 11.0313 8C11.2862 8.0112 11.5412 8.12858 11.7188 8.3125L13 9.59369L14.3125 8.3125C14.5781 8.082 14.7592 8.007 15 8H16V9C16 9.28647 15.9657 9.55065 15.75 9.75L14.4688 11.0312L15.7188 12.2812C15.907 12.4694 16 12.7346 16 12.9999V13.9999H15C14.7347 13.9999 14.4695 13.9068 14.2813 13.7187L13.0001 12.4375L11.7189 13.7187C11.5307 13.9069 11.2654 13.9999 11.0002 13.9999H10.0002V12.9999C10.0002 12.7346 10.0933 12.4694 10.2814 12.2812L11.5626 11.0312L10.2814 9.75C10.0707 9.55537 9.97824 9.28075 10.0002 9V8H10Z"/>
</svg>
